X:360
T:Parson upon Dorothy.
T:Shepherd's Daughter.
C:John Malchair's Third Collection of Tunes
F:https://www.vwml.org/record/Malchair/3619/p36
F:www.vwml.org/topics/historic-dance-and-tune-books/Malchair
Z:Eric Conrad Feb 2020
N:NB1 Repeats added.
M:C|
L:1/8
W:from the edition of 1665. the same as in edition of 1652.
W:see another p. 116. Different amd more simple.
K:Gdor
P:A
|: "_NB1"D2 | G3G ABcA | B3c B2d2 | c2B2 ABcA | B4 B2 :|
P:B
d2 | c2B2 ABcA | B3c B2d2 | c2B2 ABcA | B4 B2 ||
P:C
|: d2 | c3B A2c2 | B3A G2B2 | A2G2 G2^F2 | G6 :|


